16x16/panel/si-syncthing-1.svg

<svg xmlns="http://www.w3.org/2000/svg" width="16" height="16" version="1.1">
 <defs>
  <style id="current-color-scheme" type="text/css">
   .ColorScheme-Text { color:#323a41; } .ColorScheme-Highlight { color:#4285f4; } .ColorScheme-NeutralText { color:#ff9800; } .ColorScheme-PositiveText { color:#4caf50; } .ColorScheme-NegativeText { color:#f44336; }
  </style>
 </defs>
 <path style="fill:currentColor" class="ColorScheme-Text" d="M 8 1 A 7 7 0 0 0 1 8 A 7 7 0 0 0 8 15 A 7 7 0 0 0 15 8 A 7 7 0 0 0 8 1 z M 8 3 A 5 5 0 0 1 12.908203 7.0566406 A 1.5 1.5 0 0 1 14 8.5 A 1.5 1.5 0 0 1 12.578125 9.9960938 A 5 5 0 0 1 9.9960938 12.582031 A 1.5 1.5 0 0 1 8.5 14 A 1.5 1.5 0 0 1 7.0566406 12.90625 A 5 5 0 0 1 3 8 A 5 5 0 0 1 3.0019531 7.9140625 A 1.5 1.5 0 0 1 2 6.5 A 1.5 1.5 0 0 1 3.5 5 A 1.5 1.5 0 0 1 3.9550781 5.0722656 A 5 5 0 0 1 8 3 z M 8 4 A 4 4 0 0 0 4.7519531 5.6738281 A 1.5 1.5 0 0 1 5 6.5 A 1.5 1.5 0 0 1 4.9960938 6.5605469 L 7.3730469 7.5117188 A 1.5 1.5 0 0 1 8.5 7 A 1.5 1.5 0 0 1 9.9121094 8 L 11.087891 8 A 1.5 1.5 0 0 1 11.898438 7.1289062 A 4 4 0 0 0 8 4 z M 4.625 7.4882812 A 1.5 1.5 0 0 1 4.0039062 7.9101562 A 4 4 0 0 0 4 8 A 4 4 0 0 0 7.1269531 11.900391 A 1.5 1.5 0 0 1 8 11.087891 L 8 9.9121094 A 1.5 1.5 0 0 1 7 8.5 A 1.5 1.5 0 0 1 7.0039062 8.4394531 L 4.625 7.4882812 z M 9.9121094 9 A 1.5 1.5 0 0 1 9 9.9121094 L 9 11.087891 A 1.5 1.5 0 0 1 9.7050781 11.613281 A 4 4 0 0 0 11.611328 9.7070312 A 1.5 1.5 0 0 1 11.087891 9 L 9.9121094 9 z"/>
</svg>

<svg xmlns="http://www.w3.org/2000/svg" width="16" height="16"><defs><style id="current-color-scheme" type="text/css"></style></defs><path d="M8 1a7 7 0 0 0-7 7 7 7 0 0 0 7 7 7 7 0 0 0 7-7 7 7 0 0 0-7-7zm0 2a5 5 0 0 1 4.908 4.057A1.5 1.5 0 0 1 14 8.5a1.5 1.5 0 0 1-1.422 1.496 5 5 0 0 1-2.582 2.586A1.5 1.5 0 0 1 8.5 14a1.5 1.5 0 0 1-1.443-1.094A5 5 0 0 1 3 8a5 5 0 0 1 .002-.086A1.5 1.5 0 0 1 2 6.5 1.5 1.5 0 0 1 3.5 5a1.5 1.5 0 0 1 .455.072A5 5 0 0 1 8 3zm0 1a4 4 0 0 0-3.248 1.674A1.5 1.5 0 0 1 5 6.5a1.5 1.5 0 0 1-.004.06l2.377.952A1.5 1.5 0 0 1 8.5 7a1.5 1.5 0 0 1 1.412 1h1.176a1.5 1.5 0 0 1 .81-.871A4 4 0 0 0 8 4zM4.625 7.488a1.5 1.5 0 0 1-.621.422A4 4 0 0 0 4 8a4 4 0 0 0 3.127 3.9A1.5 1.5 0 0 1 8 11.088V9.912A1.5 1.5 0 0 1 7 8.5a1.5 1.5 0 0 1 .004-.06l-2.379-.952zM9.912 9A1.5 1.5 0 0 1 9 9.912v1.176a1.5 1.5 0 0 1 .705.525 4 4 0 0 0 1.906-1.906A1.5 1.5 0 0 1 11.088 9H9.912z" fill="currentColor" color="#d3dae3"/></svg>
